X: 38020
T: Spellan's Inspiration
R: hornpipe
M: 4/4
K: Cdorian
K: BbMaj
|:bg|f2 dB B2 FD|G2 E2 E2 FE|DFEG FBed|cBAG F2 bg|
f2 dB B2 FD|G2 E2 E2 FE|DFEG FBAc|B2 B,2 B,2:|
|:DE|FGFE DEFD|GAGF EDEF|GAG^F =EGcB|A2 F2 F2 DE|
FGFE DEFD|E2 g2 g2 fe|dfBd cfAc|B2 B,2 B2,:|
|:DC|B,2 DB, FB,DB,|A,B,CD E2 DC|DFEG FBAc|ecAF EDEC|
B,2 DB, FB,DB,|A,B,CD E2 DC|DBAG FGEC|B,2 A,2 B,2:|

